; generated by PrusaSlicer 2.2.0+win64 on 2020-10-08 at 16:24:36 UTC

; 

; external perimeters extrusion width = 0.45mm
; perimeters extrusion width = 0.45mm
; infill extrusion width = 0.45mm
; solid infill extrusion width = 0.45mm
; top infill extrusion width = 0.40mm
; first layer extrusion width = 0.42mm

M73 P0 R210
M73 Q0 S213
M201 X1000 Y1000 Z1000 E8000 ; sets maximum accelerations, mm/sec^2
M203 X200 Y200 Z12 E120 ; sets maximum feedrates, mm/sec
M204 P1250 R1250 T1250 ; sets acceleration (P, T) and retract acceleration (R), mm/sec^2
M205 X8.00 Y8.00 Z0.40 E4.50 ; sets the jerk limits, mm/sec
M205 S0 T0 ; sets the minimum extruding and travel feed rate, mm/sec
M107
M862.3 P "MK3MMU2" ; printer model check
M862.1 P0.4 ; nozzle diameter check
M115 U3.8.1 ; tell printer latest fw version
G90 ; use absolute coordinates
M83 ; extruder relative mode
M104 S215 ; set extruder temp
M140 S60 ; set bed temp
M190 S60 ; wait for bed temp
M109 S215 ; wait for extruder temp
G28 W ; home all without mesh bed level
G80 ; mesh bed leveling

; Send the filament type to the MMU2.0 unit.
; E stands for extruder number, F stands for filament type (0: default; 1:flex; 2: PVA)
M403 E0 F0
M403 E1 F0
M403 E2 F0
M403 E3 F0
M403 E4 F0


;go outside print area
G1 Y-3.0 F1000.0
G1 Z0.4 F1000.0
; select extruder
T0
; initial load
G1 X55.0 E32.0 F1073.0
M73 Q0 S212
M73 P0 R209
G1 X5.0 E32.0 F1800.0
G1 X55.0 E8.0 F2000.0
G1 Z0.3 F1000.0
G92 E0.0
G1 X240.0 E25.0 F2200.0
G1 Y-2.0 F1000.0
G1 X55.0 E25 F1400.0
G1 Z0.20 F1000.0
G1 X5.0 E4.0 F1000.0
G92 E0.0


M221 S95
G92 E0.0
G21 ; set units to millimeters
G90 ; use absolute coordinates
M83 ; use relative distances for extrusion
M900 K30 ; Filament gcode
;BEFORE_LAYER_CHANGE
G92 E0.0
;0.3


G1 E-0.80000 F2100.00000
G1 Z0.600 F10800.000
;AFTER_LAYER_CHANGE
;0.3
G1 X21.776 Y22.330
G1 Z0.300
G1 E0.80000 F2100.00000
M204 S1000
G1 F1200.000
G1 X22.596 Y22.181 E0.03697
G1 X227.404 Y22.181 E9.08422
G1 X227.923 Y22.240 E0.02316
G1 X228.416 Y22.411 E0.02316
G1 X228.859 Y22.687 E0.02316
G1 X229.231 Y23.054 E0.02316
G1 X248.125 Y47.345 E1.36495
G1 X248.390 Y47.781 E0.02266
G1 X248.555 Y48.265 E0.02266
G1 X248.613 Y48.932 E0.02970
G1 X248.600 Y105.607 E2.51382
G1 X248.415 Y106.560 E0.04306
G1 X248.113 Y107.190 E0.03100
G1 X247.428 Y107.958 E0.04562
G1 X246.726 Y108.372 E0.03614
G1 X245.675 Y108.636 E0.04807
G1 X4.450 Y108.640 E10.69951
G1 X3.716 Y108.526 E0.03292
G1 X2.760 Y108.105 E0.04636
G1 X2.103 Y107.497 E0.03969
G1 X1.627 Y106.695 E0.04138
G1 X1.396 Y105.543 E0.05213
G1 X1.384 Y48.928 E2.51113
G1 X1.449 Y48.233 E0.03095
G1 X1.614 Y47.766 E0.02199
G1 X1.873 Y47.343 E0.02199
G1 X20.745 Y23.084 E1.36326
G1 X21.210 Y22.635 E0.02867
G1 X21.723 Y22.359 E0.02584
G1 F8640.000
G1 X22.596 Y22.181 E-0.20569
G1 X24.996 Y22.181 E-0.55431
G1 E-0.04000 F2100.00000
G1 Z0.900 F10800.000
G1 X23.366 Y25.302
G1 Z0.300
G1 E0.80000 F2100.00000
G1 F1200.000
G1 X226.634 Y25.302 E9.01595
M73 Q0 S211
M73 P0 R208
G1 X226.634 Y40.771 E0.68611
G1 X23.366 Y40.771 E9.01595
G1 X23.366 Y25.362 E0.68345
G1 X23.010 Y24.947 F10800.000
G1 F1200.000
G1 X226.990 Y24.947 E9.04750
G1 X226.990 Y41.127 E0.71766
G1 X23.010 Y41.127 E9.04750
G1 X23.010 Y25.007 E0.71500
G1 X23.410 Y24.957 F10800.000
G1 F8640.000
G1 X26.301 Y25.006 E-0.76000
G1 E-0.04000 F2100.00000
G1 Z0.900 F10800.000
G1 X226.528 Y26.128
G1 Z0.300
G1 E0.80000 F2100.00000
G1 F1200.000
G1 X225.968 Y25.569 E0.03510
G1 X225.465 Y25.569 E0.02233
G1 X226.368 Y26.471 E0.05663
G1 X226.368 Y26.975 E0.02233
G1 X224.962 Y25.569 E0.08821
G1 X224.459 Y25.569 E0.02233
G1 X226.368 Y27.478 E0.11979
G1 X226.368 Y27.981 E0.02233
G1 X223.956 Y25.569 E0.15137
G1 X223.453 Y25.569 E0.02233
G1 X226.368 Y28.484 E0.18295
G1 X226.368 Y28.987 E0.02233
G1 X222.949 Y25.569 E0.21453
G1 X222.446 Y25.569 E0.02233
G1 X226.368 Y29.491 E0.24611
G1 X226.368 Y29.994 E0.02233
G1 X221.943 Y25.569 E0.27769
G1 X221.440 Y25.569 E0.02233
G1 X226.368 Y30.497 E0.30927
G1 X226.368 Y31.000 E0.02233
G1 X220.937 Y25.569 E0.34085
G1 X220.433 Y25.569 E0.02233
G1 X226.368 Y31.503 E0.37243
G1 X226.368 Y32.007 E0.02233
G1 X219.930 Y25.569 E0.40401
G1 X219.427 Y25.569 E0.02233
G1 X226.368 Y32.510 E0.43559
G1 X226.368 Y33.013 E0.02233
G1 X218.924 Y25.569 E0.46717
G1 X218.421 Y25.569 E0.02233
G1 X226.368 Y33.516 E0.49875
G1 X226.368 Y34.019 E0.02233
G1 X217.918 Y25.569 E0.53033
G1 X217.414 Y25.569 E0.02233
G1 X226.368 Y34.522 E0.56191
G1 X226.368 Y35.026 E0.02233
G1 X216.911 Y25.569 E0.59349
G1 X216.408 Y25.569 E0.02233
G1 X226.368 Y35.529 E0.62507
G1 X226.368 Y36.032 E0.02233
G1 X215.905 Y25.569 E0.65665
G1 X215.402 Y25.569 E0.02233
G1 X226.368 Y36.535 E0.68823
G1 X226.368 Y37.038 E0.02233
G1 X214.898 Y25.569 E0.71981
G1 X214.395 Y25.569 E0.02233
G1 X226.368 Y37.542 E0.75139
G1 X226.368 Y38.045 E0.02233
G1 X213.892 Y25.569 E0.78297
G1 X213.389 Y25.569 E0.02233
G1 X226.368 Y38.548 E0.81455
G1 X226.368 Y39.051 E0.02233
G1 X212.886 Y25.569 E0.84613
G1 X212.383 Y25.569 E0.02233
G1 X226.368 Y39.554 E0.87771
G1 X226.368 Y40.057 E0.02233
G1 X211.879 Y25.569 E0.90928
G1 X211.376 Y25.569 E0.02233
G1 X226.312 Y40.504 E0.93734
G1 X225.808 Y40.504 E0.02233
G1 X210.873 Y25.569 E0.93734
G1 X210.370 Y25.569 E0.02233
G1 X225.305 Y40.504 E0.93734
G1 X224.802 Y40.504 E0.02233
G1 X209.867 Y25.569 E0.93734
G1 X209.363 Y25.569 E0.02233
G1 X224.299 Y40.504 E0.93734
G1 X223.796 Y40.504 E0.02233
G1 X208.860 Y25.569 E0.93734
G1 X208.357 Y25.569 E0.02233
G1 X223.292 Y40.504 E0.93734
M73 Q1 S210
G1 X222.789 Y40.504 E0.02233
G1 X207.854 Y25.569 E0.93734
M73 P1 R207
G1 X207.351 Y25.569 E0.02233
G1 X222.286 Y40.504 E0.93734
G1 X221.783 Y40.504 E0.02233
G1 X206.848 Y25.569 E0.93734
G1 X206.344 Y25.569 E0.02233
G1 X221.280 Y40.504 E0.93734
G1 X220.776 Y40.504 E0.02233
G1 X205.841 Y25.569 E0.93734
G1 X205.338 Y25.569 E0.02233
G1 X220.273 Y40.504 E0.93734
G1 X219.770 Y40.504 E0.02233
G1 X204.835 Y25.569 E0.93734
G1 X204.332 Y25.569 E0.02233
G1 X219.267 Y40.504 E0.93734
G1 X218.764 Y40.504 E0.02233
G1 X203.828 Y25.569 E0.93734
G1 X203.325 Y25.569 E0.02233
G1 X218.261 Y40.504 E0.93734
G1 X217.757 Y40.504 E0.02233
G1 X202.822 Y25.569 E0.93734
G1 X202.319 Y25.569 E0.02233
G1 X217.254 Y40.504 E0.93734
G1 X216.751 Y40.504 E0.02233
G1 X201.816 Y25.569 E0.93734
G1 X201.312 Y25.569 E0.02233
G1 X216.248 Y40.504 E0.93734
G1 X215.745 Y40.504 E0.02233
G1 X200.809 Y25.569 E0.93734
G1 X200.306 Y25.569 E0.02233
G1 X215.241 Y40.504 E0.93734
G1 X214.738 Y40.504 E0.02233
G1 X199.803 Y25.569 E0.93734
G1 X199.300 Y25.569 E0.02233
G1 X214.235 Y40.504 E0.93734
G1 X213.732 Y40.504 E0.02233
G1 X198.797 Y25.569 E0.93734
G1 X198.293 Y25.569 E0.02233
G1 X213.229 Y40.504 E0.93734
G1 X212.726 Y40.504 E0.02233
G1 X197.790 Y25.569 E0.93734
G1 X197.287 Y25.569 E0.02233
G1 X212.222 Y40.504 E0.93734
G1 X211.719 Y40.504 E0.02233
G1 X196.784 Y25.569 E0.93734
G1 X196.281 Y25.569 E0.02233
G1 X211.216 Y40.504 E0.93734
G1 X210.713 Y40.504 E0.02233
G1 X195.777 Y25.569 E0.93734
G1 X195.274 Y25.569 E0.02233
G1 X210.210 Y40.504 E0.93734
G1 X209.706 Y40.504 E0.02233
G1 X194.771 Y25.569 E0.93734
G1 X194.268 Y25.569 E0.02233
G1 X209.203 Y40.504 E0.93734
G1 X208.700 Y40.504 E0.02233
G1 X193.765 Y25.569 E0.93734
G1 X193.262 Y25.569 E0.02233
G1 X208.197 Y40.504 E0.93734
G1 X207.694 Y40.504 E0.02233
G1 X192.758 Y25.569 E0.93734
G1 X192.255 Y25.569 E0.02233
G1 X207.191 Y40.504 E0.93734
G1 X206.687 Y40.504 E0.02233
G1 X191.752 Y25.569 E0.93734
G1 X191.249 Y25.569 E0.02233
G1 X206.184 Y40.504 E0.93734
G1 X205.681 Y40.504 E0.02233
G1 X190.746 Y25.569 E0.93734
G1 X190.242 Y25.569 E0.02233
G1 X205.178 Y40.504 E0.93734
G1 X204.675 Y40.504 E0.02233
G1 X189.739 Y25.569 E0.93734
G1 X189.236 Y25.569 E0.02233
G1 X204.171 Y40.504 E0.93734
G1 X203.668 Y40.504 E0.02233
G1 X188.733 Y25.569 E0.93734
G1 X188.230 Y25.569 E0.02233
G1 X203.165 Y40.504 E0.93734
G1 X202.662 Y40.504 E0.02233
G1 X187.727 Y25.569 E0.93734
G1 X187.223 Y25.569 E0.02233
G1 X202.159 Y40.504 E0.93734
G1 X201.656 Y40.504 E0.02233
G1 X186.720 Y25.569 E0.93734
G1 X186.217 Y25.569 E0.02233
G1 X201.152 Y40.504 E0.93734
G1 X200.649 Y40.504 E0.02233
G1 X185.714 Y25.569 E0.93734
G1 X185.211 Y25.569 E0.02233
G1 X200.146 Y40.504 E0.93734
G1 X199.643 Y40.504 E0.02233
G1 X184.707 Y25.569 E0.93734
G1 X184.204 Y25.569 E0.02233
G1 X199.140 Y40.504 E0.93734
G1 X198.636 Y40.504 E0.02233
G1 X183.701 Y25.569 E0.93734
G1 X183.198 Y25.569 E0.02233
G1 X198.133 Y40.504 E0.93734
G1 X197.630 Y40.504 E0.02233
G1 X182.695 Y25.569 E0.93734
G1 X182.192 Y25.569 E0.02233
G1 X197.127 Y40.504 E0.93734
G1 X196.624 Y40.504 E0.02233
G1 X181.688 Y25.569 E0.93734
G1 X181.185 Y25.569 E0.02233
G1 X196.121 Y40.504 E0.93734
G1 X195.617 Y40.504 E0.02233
G1 X180.682 Y25.569 E0.93734
M73 Q1 S209
G1 X180.179 Y25.569 E0.02233
G1 X195.114 Y40.504 E0.93734
M73 P1 R206
G1 X194.611 Y40.504 E0.02233
G1 X179.676 Y25.569 E0.93734
G1 X179.172 Y25.569 E0.02233
G1 X194.108 Y40.504 E0.93734
G1 X193.605 Y40.504 E0.02233
G1 X178.669 Y25.569 E0.93734
G1 X178.166 Y25.569 E0.02233
G1 X193.101 Y40.504 E0.93734
G1 X192.598 Y40.504 E0.02233
G1 X177.663 Y25.569 E0.93734
G1 X177.160 Y25.569 E0.02233
G1 X192.095 Y40.504 E0.93734
G1 X191.592 Y40.504 E0.02233
G1 X176.657 Y25.569 E0.93734
G1 X176.153 Y25.569 E0.02233
G1 X191.089 Y40.504 E0.93734
G1 X190.586 Y40.504 E0.02233
G1 X175.650 Y25.569 E0.93734
G1 X175.147 Y25.569 E0.02233
G1 X190.082 Y40.504 E0.93734
G1 X189.579 Y40.504 E0.02233
G1 X174.644 Y25.569 E0.93734
G1 X174.141 Y25.569 E0.02233
G1 X189.076 Y40.504 E0.93734
G1 X188.573 Y40.504 E0.02233
G1 X173.637 Y25.569 E0.93734
G1 X173.134 Y25.569 E0.02233
G1 X188.070 Y40.504 E0.93734
G1 X187.566 Y40.504 E0.02233
G1 X172.631 Y25.569 E0.93734
G1 X172.128 Y25.569 E0.02233
G1 X187.063 Y40.504 E0.93734
G1 X186.560 Y40.504 E0.02233
G1 X171.625 Y25.569 E0.93734
G1 X171.122 Y25.569 E0.02233
G1 X186.057 Y40.504 E0.93734
G1 X185.554 Y40.504 E0.02233
G1 X170.618 Y25.569 E0.93734
G1 X170.115 Y25.569 E0.02233
G1 X185.051 Y40.504 E0.93734
G1 X184.547 Y40.504 E0.02233
G1 X169.612 Y25.569 E0.93734
G1 X169.109 Y25.569 E0.02233
G1 X184.044 Y40.504 E0.93734
G1 X183.541 Y40.504 E0.02233
G1 X168.606 Y25.569 E0.93734
G1 X168.102 Y25.569 E0.02233
G1 X183.038 Y40.504 E0.93734
G1 X182.535 Y40.504 E0.02233
G1 X167.599 Y25.569 E0.93734
G1 X167.096 Y25.569 E0.02233
G1 X182.031 Y40.504 E0.93734
G1 X181.528 Y40.504 E0.02233
G1 X166.593 Y25.569 E0.93734
G1 X166.090 Y25.569 E0.02233
G1 X181.025 Y40.504 E0.93734
G1 X180.522 Y40.504 E0.02233
G1 X165.587 Y25.569 E0.93734
G1 X165.083 Y25.569 E0.02233
G1 X180.019 Y40.504 E0.93734
G1 X179.515 Y40.504 E0.02233
G1 X164.580 Y25.569 E0.93734
G1 X164.077 Y25.569 E0.02233
G1 X179.012 Y40.504 E0.93734
G1 X178.509 Y40.504 E0.02233
G1 X163.574 Y25.569 E0.93734
G1 X163.071 Y25.569 E0.02233
G1 X178.006 Y40.504 E0.93734
G1 X177.503 Y40.504 E0.02233
G1 X162.567 Y25.569 E0.93734
G1 X162.064 Y25.569 E0.02233
G1 X177.000 Y40.504 E0.93734
G1 X176.496 Y40.504 E0.02233
G1 X161.561 Y25.569 E0.93734
G1 X161.058 Y25.569 E0.02233
G1 X175.993 Y40.504 E0.93734
G1 X175.490 Y40.504 E0.02233
G1 X160.555 Y25.569 E0.93734
G1 X160.051 Y25.569 E0.02233
G1 X174.987 Y40.504 E0.93734
G1 X174.484 Y40.504 E0.02233
G1 X159.548 Y25.569 E0.93734
G1 X159.045 Y25.569 E0.02233
G1 X173.980 Y40.504 E0.93734
G1 X173.477 Y40.504 E0.02233
G1 X158.542 Y25.569 E0.93734
G1 X158.039 Y25.569 E0.02233
G1 X172.974 Y40.504 E0.93734
G1 X172.471 Y40.504 E0.02233
G1 X157.536 Y25.569 E0.93734
G1 X157.032 Y25.569 E0.02233
G1 X171.968 Y40.504 E0.93734
G1 X171.465 Y40.504 E0.02233
G1 X156.529 Y25.569 E0.93734
G1 X156.026 Y25.569 E0.02233
G1 X170.961 Y40.504 E0.93734
G1 X170.458 Y40.504 E0.02233
G1 X155.523 Y25.569 E0.93734
G1 X155.020 Y25.569 E0.02233
G1 X169.955 Y40.504 E0.93734
G1 X169.452 Y40.504 E0.02233
G1 X154.516 Y25.569 E0.93734
G1 X154.013 Y25.569 E0.02233
G1 X168.949 Y40.504 E0.93734
G1 X168.445 Y40.504 E0.02233
G1 X153.510 Y25.569 E0.93734
G1 X153.007 Y25.569 E0.02233
G1 X167.942 Y40.504 E0.93734
M73 Q2 S208
G1 X167.439 Y40.504 E0.02233
G1 X152.504 Y25.569 E0.93734
M73 P2 R205
G1 X152.001 Y25.569 E0.02233
G1 X166.936 Y40.504 E0.93734
G1 X166.433 Y40.504 E0.02233
G1 X151.497 Y25.569 E0.93734
G1 X150.994 Y25.569 E0.02233
G1 X165.930 Y40.504 E0.93734
G1 X165.426 Y40.504 E0.02233
G1 X150.491 Y25.569 E0.93734
G1 X149.988 Y25.569 E0.02233
G1 X164.923 Y40.504 E0.93734
G1 X164.420 Y40.504 E0.02233
G1 X149.485 Y25.569 E0.93734
G1 X148.981 Y25.569 E0.02233
G1 X163.917 Y40.504 E0.93734
G1 X163.414 Y40.504 E0.02233
G1 X148.478 Y25.569 E0.93734
G1 X147.975 Y25.569 E0.02233
G1 X162.910 Y40.504 E0.93734
G1 X162.407 Y40.504 E0.02233
G1 X147.472 Y25.569 E0.93734
G1 X146.969 Y25.569 E0.02233
G1 X161.904 Y40.504 E0.93734
G1 X161.401 Y40.504 E0.02233
G1 X146.466 Y25.569 E0.93734
G1 X145.962 Y25.569 E0.02233
G1 X160.898 Y40.504 E0.93734
G1 X160.395 Y40.504 E0.02233
G1 X145.459 Y25.569 E0.93734
G1 X144.956 Y25.569 E0.02233
G1 X159.891 Y40.504 E0.93734
G1 X159.388 Y40.504 E0.02233
G1 X144.453 Y25.569 E0.93734
G1 X143.950 Y25.569 E0.02233
G1 X158.885 Y40.504 E0.93734
G1 X158.382 Y40.504 E0.02233
G1 X143.446 Y25.569 E0.93734
G1 X142.943 Y25.569 E0.02233
G1 X157.879 Y40.504 E0.93734
G1 X157.375 Y40.504 E0.02233
G1 X142.440 Y25.569 E0.93734
G1 X141.937 Y25.569 E0.02233
G1 X156.872 Y40.504 E0.93734
G1 X156.369 Y40.504 E0.02233
G1 X141.434 Y25.569 E0.93734
G1 X140.931 Y25.569 E0.02233
G1 X155.866 Y40.504 E0.93734
G1 X155.363 Y40.504 E0.02233
G1 X140.427 Y25.569 E0.93734
G1 X139.924 Y25.569 E0.02233
G1 X154.860 Y40.504 E0.93734
G1 X154.356 Y40.504 E0.02233
G1 X139.421 Y25.569 E0.93734
G1 X138.918 Y25.569 E0.02233
G1 X153.853 Y40.504 E0.93734
G1 X153.350 Y40.504 E0.02233
G1 X138.415 Y25.569 E0.93734
G1 X137.911 Y25.569 E0.02233
G1 X152.847 Y40.504 E0.93734
G1 X152.344 Y40.504 E0.02233
G1 X137.408 Y25.569 E0.93734
G1 X136.905 Y25.569 E0.02233
G1 X151.840 Y40.504 E0.93734
G1 X151.337 Y40.504 E0.02233
G1 X136.402 Y25.569 E0.93734
G1 X135.899 Y25.569 E0.02233
G1 X150.834 Y40.504 E0.93734
G1 X150.331 Y40.504 E0.02233
G1 X135.396 Y25.569 E0.93734
G1 X134.892 Y25.569 E0.02233
G1 X149.828 Y40.504 E0.93734
G1 X149.325 Y40.504 E0.02233
G1 X134.389 Y25.569 E0.93734
G1 X133.886 Y25.569 E0.02233
G1 X148.821 Y40.504 E0.93734
G1 X148.318 Y40.504 E0.02233
G1 X133.383 Y25.569 E0.93734
G1 X132.880 Y25.569 E0.02233
G1 X147.815 Y40.504 E0.93734
G1 X147.312 Y40.504 E0.02233
G1 X132.376 Y25.569 E0.93734
G1 X131.873 Y25.569 E0.02233
G1 X146.809 Y40.504 E0.93734
G1 X146.305 Y40.504 E0.02233
G1 X131.370 Y25.569 E0.93734
G1 X130.867 Y25.569 E0.02233
G1 X145.802 Y40.504 E0.93734
G1 X145.299 Y40.504 E0.02233
G1 X130.364 Y25.569 E0.93734
G1 X129.861 Y25.569 E0.02233
G1 X144.796 Y40.504 E0.93734
G1 X144.293 Y40.504 E0.02233
G1 X129.357 Y25.569 E0.93734
G1 X128.854 Y25.569 E0.02233
G1 X143.790 Y40.504 E0.93734
G1 X143.286 Y40.504 E0.02233
G1 X128.351 Y25.569 E0.93734
G1 X127.848 Y25.569 E0.02233
G1 X142.783 Y40.504 E0.93734
G1 X142.280 Y40.504 E0.02233
G1 X127.345 Y25.569 E0.93734
G1 X126.841 Y25.569 E0.02233
G1 X141.777 Y40.504 E0.93734
G1 X141.274 Y40.504 E0.02233
G1 X126.338 Y25.569 E0.93734
G1 X125.835 Y25.569 E0.02233
G1 X140.770 Y40.504 E0.93734
G1 X140.267 Y40.504 E0.02233
G1 X125.332 Y25.569 E0.93734
M73 Q2 S207
G1 X124.829 Y25.569 E0.02233
G1 X139.764 Y40.504 E0.93734
M73 P2 R204
G1 X139.261 Y40.504 E0.02233
G1 X124.326 Y25.569 E0.93734
G1 X123.822 Y25.569 E0.02233
G1 X138.758 Y40.504 E0.93734
G1 X138.255 Y40.504 E0.02233
G1 X123.319 Y25.569 E0.93734
G1 X122.816 Y25.569 E0.02233
G1 X137.751 Y40.504 E0.93734
G1 X137.248 Y40.504 E0.02233
G1 X122.313 Y25.569 E0.93734
G1 X121.810 Y25.569 E0.02233
G1 X136.745 Y40.504 E0.93734
G1 X136.242 Y40.504 E0.02233
G1 X121.306 Y25.569 E0.93734
G1 X120.803 Y25.569 E0.02233
G1 X135.739 Y40.504 E0.93734
G1 X135.235 Y40.504 E0.02233
G1 X120.300 Y25.569 E0.93734
G1 X119.797 Y25.569 E0.02233
G1 X134.732 Y40.504 E0.93734
G1 X134.229 Y40.504 E0.02233
G1 X119.294 Y25.569 E0.93734
G1 X118.791 Y25.569 E0.02233
G1 X133.726 Y40.504 E0.93734
G1 X133.223 Y40.504 E0.02233
G1 X118.287 Y25.569 E0.93734
G1 X117.784 Y25.569 E0.02233
G1 X132.719 Y40.504 E0.93734
