; generated by PrusaSlicer 2.2.0+win64 on 2020-10-08 at 12:52:08 UTC

; 

; external perimeters extrusion width = 0.45mm
; perimeters extrusion width = 0.45mm
; infill extrusion width = 0.45mm
; solid infill extrusion width = 0.45mm
; top infill extrusion width = 0.40mm
; first layer extrusion width = 0.42mm

M73 P0 R152
M73 Q0 S154
M201 X1000 Y1000 Z1000 E8000 ; sets maximum accelerations, mm/sec^2
M203 X200 Y200 Z12 E120 ; sets maximum feedrates, mm/sec
M204 P1250 R1250 T1250 ; sets acceleration (P, T) and retract acceleration (R), mm/sec^2
M205 X8.00 Y8.00 Z0.40 E4.50 ; sets the jerk limits, mm/sec
M205 S0 T0 ; sets the minimum extruding and travel feed rate, mm/sec
M107
M862.3 P "MK3MMU2" ; printer model check
M862.1 P0.4 ; nozzle diameter check
M115 U3.8.1 ; tell printer latest fw version
G90 ; use absolute coordinates
M83 ; extruder relative mode
M104 S215 ; set extruder temp
M140 S60 ; set bed temp
M190 S60 ; wait for bed temp
M109 S215 ; wait for extruder temp
G28 W ; home all without mesh bed level
G80 ; mesh bed leveling

; Send the filament type to the MMU2.0 unit.
; E stands for extruder number, F stands for filament type (0: default; 1:flex; 2: PVA)
M403 E0 F0
M403 E1 F0
M403 E2 F0
M403 E3 F0
M403 E4 F0


;go outside print area
G1 Y-3.0 F1000.0
G1 Z0.4 F1000.0
; select extruder
T0
; initial load
G1 X55.0 E32.0 F1073.0
M73 Q0 S153
M73 P0 R151
G1 X5.0 E32.0 F1800.0
G1 X55.0 E8.0 F2000.0
G1 Z0.3 F1000.0
G92 E0.0
G1 X240.0 E25.0 F2200.0
G1 Y-2.0 F1000.0
G1 X55.0 E25 F1400.0
G1 Z0.20 F1000.0
G1 X5.0 E4.0 F1000.0
G92 E0.0


M221 S95
G92 E0.0
G21 ; set units to millimeters
G90 ; use absolute coordinates
M83 ; use relative distances for extrusion
M900 K30 ; Filament gcode
;BEFORE_LAYER_CHANGE
G92 E0.0
;0.3


G1 E-0.80000 F2100.00000
G1 Z0.600 F10800.000
;AFTER_LAYER_CHANGE
;0.3
G1 X37.546 Y25.127
G1 Z0.300
G1 E0.80000 F2100.00000
M204 S1000
G1 F1200.000
G1 X38.355 Y24.811 E0.03851
G1 X39.499 Y24.645 E0.05128
G1 X140.544 Y24.644 E4.48182
G1 X141.274 Y24.707 E0.03253
G1 X142.057 Y24.921 E0.03600
G1 X142.982 Y25.396 E0.04609
G1 X143.609 Y25.910 E0.03600
G1 X144.090 Y26.478 E0.03300
G1 X144.491 Y27.175 E0.03566
G1 X144.812 Y28.163 E0.04609
G1 X144.895 Y28.944 E0.03483
G1 X144.895 Y183.008 E6.83346
G1 X144.783 Y183.720 E0.03200
G1 X144.462 Y184.362 E0.03183
G1 X144.092 Y184.772 E0.02450
G1 X143.636 Y185.085 E0.02450
G1 X143.124 Y185.282 E0.02433
G1 X142.577 Y185.355 E0.02450
G1 X80.271 Y185.340 E2.76357
G1 X36.854 Y172.254 E2.01132
G1 X36.177 Y171.921 E0.03349
G1 X35.762 Y171.545 E0.02483
G1 X35.447 Y171.082 E0.02483
G1 X35.251 Y170.558 E0.02483
G1 X35.184 Y170.006 E0.02467
G1 X35.184 Y28.989 E6.25478
G1 X35.238 Y28.318 E0.02985
G1 X35.396 Y27.657 E0.03015
G1 X35.656 Y27.029 E0.03015
G1 X35.999 Y26.464 E0.02931
G1 X36.585 Y25.803 E0.03918
G1 X37.497 Y25.162 E0.04945
G1 F8640.000
G1 X38.355 Y24.811 E-0.21396
G1 X39.499 Y24.645 E-0.26693
G1 X40.708 Y24.645 E-0.27910
G1 E-0.04000 F2100.00000
G1 Z0.900 F10800.000
G1 X135.219 Y87.814
G1 Z0.300
G1 E0.80000 F2100.00000
G1 F1200.000
G1 X135.512 Y87.472 E0.01996
G1 X135.854 Y87.180 E0.01996
G1 X136.238 Y86.945 E0.01996
G1 X136.653 Y86.772 E0.01996
G1 X137.091 Y86.667 E0.01996
G1 X137.500 Y86.635 E0.01821
G1 X137.984 Y86.666 E0.02152
G1 X138.426 Y86.772 E0.02014
G1 X138.842 Y86.945 E0.01996
G1 X139.225 Y87.180 E0.01996
G1 X139.568 Y87.472 E0.01996
G1 X139.860 Y87.814 E0.01996
G1 X140.095 Y88.198 E0.01996
G1 X140.252 Y88.577 E0.01821
G1 X140.372 Y89.047 E0.02152
G1 X140.408 Y89.500 E0.02014
G1 X140.372 Y89.949 E0.01996
G1 X140.267 Y90.386 E0.01996
G1 X140.095 Y90.802 E0.01996
G1 X139.860 Y91.186 E0.01996
G1 X139.568 Y91.528 E0.01996
G1 X139.225 Y91.820 E0.01996
G1 X138.842 Y92.055 E0.01996
G1 X138.462 Y92.213 E0.01821
G1 X137.992 Y92.332 E0.02152
G1 X137.540 Y92.368 E0.02014
G1 X137.091 Y92.333 E0.01996
G1 X136.653 Y92.228 E0.01996
G1 X136.238 Y92.055 E0.01996
G1 X135.854 Y91.820 E0.01996
G1 X135.512 Y91.528 E0.01996
G1 X135.219 Y91.186 E0.01996
G1 X134.984 Y90.802 E0.01996
G1 X134.827 Y90.423 E0.01821
G1 X134.707 Y89.953 E0.02152
G1 X134.672 Y89.500 E0.02014
G1 X134.707 Y89.051 E0.01996
G1 X134.812 Y88.614 E0.01996
G1 X134.984 Y88.198 E0.01996
G1 X135.188 Y87.865 E0.01730
G1 X135.491 Y88.051 F10800.000
G1 F1200.000
G1 X135.764 Y87.724 E0.01888
G1 X136.064 Y87.468 E0.01748
G1 X136.400 Y87.262 E0.01748
G1 X136.764 Y87.112 E0.01748
G1 X137.147 Y87.020 E0.01748
G1 X137.503 Y86.992 E0.01584
G1 X137.931 Y87.019 E0.01904
G1 X138.316 Y87.112 E0.01754
G1 X138.680 Y87.262 E0.01748
G1 X139.016 Y87.468 E0.01748
G1 X139.315 Y87.724 E0.01748
G1 X139.571 Y88.024 E0.01748
G1 X139.777 Y88.360 E0.01748
G1 X139.914 Y88.690 E0.01584
G1 X140.020 Y89.106 E0.01904
G1 X140.051 Y89.500 E0.01754
G1 X140.020 Y89.893 E0.01748
G1 X139.928 Y90.276 E0.01748
G1 X139.777 Y90.640 E0.01748
G1 X139.571 Y90.976 E0.01748
G1 X139.315 Y91.276 E0.01748
G1 X139.016 Y91.532 E0.01748
G1 X138.680 Y91.738 E0.01748
G1 X138.350 Y91.874 E0.01584
G1 X137.934 Y91.980 E0.01904
G1 X137.540 Y92.011 E0.01754
G1 X137.147 Y91.980 E0.01748
G1 X136.764 Y91.888 E0.01748
G1 X136.400 Y91.738 E0.01748
G1 X136.064 Y91.532 E0.01748
G1 X135.764 Y91.276 E0.01748
G1 X135.508 Y90.976 E0.01748
G1 X135.302 Y90.640 E0.01748
G1 X135.166 Y90.310 E0.01584
G1 X135.059 Y89.894 E0.01904
G1 X135.028 Y89.500 E0.01754
G1 X135.059 Y89.107 E0.01748
G1 X135.151 Y88.724 E0.01748
G1 X135.302 Y88.360 E0.01748
G1 X135.460 Y88.102 E0.01340
G1 X135.325 Y87.687 F10800.000
G1 F8640.000
G1 X135.764 Y87.724 E-0.11202
G1 X136.064 Y87.468 E-0.09099
G1 X136.400 Y87.262 E-0.09099
G1 X136.764 Y87.112 E-0.09099
G1 X137.147 Y87.020 E-0.09099
G1 X137.503 Y86.992 E-0.08245
G1 X137.931 Y87.019 E-0.09910
G1 X138.316 Y87.112 E-0.09133
G1 X138.360 Y87.130 E-0.01113
G1 E-0.04000 F2100.00000
G1 Z0.900 F10800.000
G1 X137.540 Y42.368
G1 Z0.300
G1 E0.80000 F2100.00000
G1 F1200.000
G1 X137.091 Y42.333 E0.01996
G1 X136.653 Y42.228 E0.01996
G1 X136.238 Y42.055 E0.01996
G1 X135.854 Y41.820 E0.01996
G1 X135.512 Y41.528 E0.01996
G1 X135.219 Y41.186 E0.01996
G1 X134.984 Y40.802 E0.01996
G1 X134.827 Y40.423 E0.01821
G1 X134.707 Y39.953 E0.02152
G1 X134.672 Y39.500 E0.02014
G1 X134.707 Y39.051 E0.01996
G1 X134.812 Y38.614 E0.01996
G1 X134.984 Y38.198 E0.01996
G1 X135.219 Y37.814 E0.01996
G1 X135.512 Y37.472 E0.01996
G1 X135.854 Y37.180 E0.01996
G1 X136.238 Y36.945 E0.01996
G1 X136.653 Y36.772 E0.01996
G1 X137.091 Y36.667 E0.01996
G1 X137.500 Y36.635 E0.01821
G1 X137.984 Y36.666 E0.02152
G1 X138.426 Y36.772 E0.02014
G1 X138.842 Y36.945 E0.01996
G1 X139.225 Y37.180 E0.01996
G1 X139.568 Y37.472 E0.01996
G1 X139.860 Y37.814 E0.01996
G1 X140.095 Y38.198 E0.01996
G1 X140.252 Y38.577 E0.01821
G1 X140.372 Y39.047 E0.02152
G1 X140.408 Y39.500 E0.02014
G1 X140.372 Y39.949 E0.01996
G1 X140.267 Y40.386 E0.01996
G1 X140.095 Y40.802 E0.01996
G1 X139.860 Y41.186 E0.01996
G1 X139.568 Y41.528 E0.01996
G1 X139.225 Y41.820 E0.01996
G1 X138.842 Y42.055 E0.01996
G1 X138.462 Y42.213 E0.01821
G1 X137.992 Y42.332 E0.02152
G1 X137.600 Y42.363 E0.01748
G1 X137.572 Y42.009 F10800.000
G1 F1200.000
G1 X137.147 Y41.980 E0.01888
G1 X136.764 Y41.888 E0.01748
G1 X136.400 Y41.738 E0.01748
G1 X136.064 Y41.532 E0.01748
G1 X135.764 Y41.276 E0.01748
G1 X135.508 Y40.976 E0.01748
G1 X135.302 Y40.640 E0.01748
G1 X135.166 Y40.310 E0.01584
G1 X135.059 Y39.894 E0.01904
G1 X135.028 Y39.500 E0.01754
G1 X135.059 Y39.107 E0.01748
G1 X135.151 Y38.724 E0.01748
G1 X135.302 Y38.360 E0.01748
G1 X135.508 Y38.024 E0.01748
G1 X135.764 Y37.724 E0.01748
G1 X136.064 Y37.468 E0.01748
G1 X136.400 Y37.262 E0.01748
G1 X136.764 Y37.112 E0.01748
G1 X137.147 Y37.020 E0.01748
G1 X137.503 Y36.992 E0.01584
G1 X137.931 Y37.019 E0.01904
G1 X138.316 Y37.112 E0.01754
G1 X138.680 Y37.262 E0.01748
G1 X139.016 Y37.468 E0.01748
G1 X139.315 Y37.724 E0.01748
G1 X139.571 Y38.024 E0.01748
G1 X139.777 Y38.360 E0.01748
G1 X139.914 Y38.690 E0.01584
G1 X140.020 Y39.106 E0.01904
G1 X140.051 Y39.500 E0.01754
G1 X140.020 Y39.893 E0.01748
G1 X139.928 Y40.276 E0.01748
G1 X139.777 Y40.640 E0.01748
G1 X139.571 Y40.976 E0.01748
G1 X139.315 Y41.276 E0.01748
G1 X139.016 Y41.532 E0.01748
G1 X138.680 Y41.738 E0.01748
G1 X138.350 Y41.874 E0.01584
G1 X137.934 Y41.980 E0.01904
G1 X137.631 Y42.004 E0.01346
G1 X137.376 Y42.358 F10800.000
G1 F8640.000
G1 X137.147 Y41.980 E-0.11202
G1 X136.764 Y41.888 E-0.09099
G1 X136.400 Y41.738 E-0.09099
G1 X136.064 Y41.532 E-0.09099
G1 X135.764 Y41.276 E-0.09099
G1 X135.508 Y40.976 E-0.09099
G1 X135.302 Y40.640 E-0.09099
G1 X135.166 Y40.310 E-0.08245
G1 X135.145 Y40.228 E-0.01959
G1 E-0.04000 F2100.00000
G1 Z0.900 F10800.000
G1 X45.408 Y39.500
G1 Z0.300
G1 E0.80000 F2100.00000
G1 F1200.000
G1 X45.372 Y39.949 E0.01996
G1 X45.267 Y40.386 E0.01996
G1 X45.095 Y40.802 E0.01996
G1 X44.860 Y41.186 E0.01996
G1 X44.568 Y41.528 E0.01996
G1 X44.225 Y41.820 E0.01996
G1 X43.842 Y42.055 E0.01996
G1 X43.462 Y42.213 E0.01821
G1 X42.992 Y42.332 E0.02152
G1 X42.540 Y42.368 E0.02014
G1 X42.091 Y42.333 E0.01996
G1 X41.653 Y42.228 E0.01996
G1 X41.238 Y42.055 E0.01996
G1 X40.854 Y41.820 E0.01996
G1 X40.512 Y41.528 E0.01996
G1 X40.219 Y41.186 E0.01996
G1 X39.984 Y40.802 E0.01996
G1 X39.827 Y40.423 E0.01821
G1 X39.707 Y39.953 E0.02152
G1 X39.672 Y39.500 E0.02014
G1 X39.707 Y39.051 E0.01996
G1 X39.812 Y38.614 E0.01996
G1 X39.984 Y38.198 E0.01996
G1 X40.219 Y37.814 E0.01996
G1 X40.512 Y37.472 E0.01996
G1 X40.854 Y37.180 E0.01996
G1 X41.238 Y36.945 E0.01996
G1 X41.653 Y36.772 E0.01996
G1 X42.091 Y36.667 E0.01996
G1 X42.500 Y36.635 E0.01821
G1 X42.984 Y36.666 E0.02152
G1 X43.426 Y36.772 E0.02014
G1 X43.842 Y36.945 E0.01996
G1 X44.225 Y37.180 E0.01996
G1 X44.568 Y37.472 E0.01996
G1 X44.860 Y37.814 E0.01996
G1 X45.095 Y38.198 E0.01996
G1 X45.252 Y38.577 E0.01821
G1 X45.372 Y39.047 E0.02152
G1 X45.403 Y39.440 E0.01748
G1 X45.048 Y39.468 F10800.000
G1 F1200.000
G1 X45.020 Y39.893 E0.01888
G1 X44.928 Y40.276 E0.01748
G1 X44.777 Y40.640 E0.01748
G1 X44.571 Y40.976 E0.01748
G1 X44.315 Y41.276 E0.01748
G1 X44.016 Y41.532 E0.01748
G1 X43.680 Y41.738 E0.01748
G1 X43.350 Y41.874 E0.01584
G1 X42.934 Y41.980 E0.01904
G1 X42.540 Y42.011 E0.01754
G1 X42.147 Y41.980 E0.01748
G1 X41.764 Y41.888 E0.01748
G1 X41.400 Y41.738 E0.01748
G1 X41.064 Y41.532 E0.01748
G1 X40.764 Y41.276 E0.01748
G1 X40.508 Y40.976 E0.01748
G1 X40.302 Y40.640 E0.01748
G1 X40.166 Y40.310 E0.01584
G1 X40.059 Y39.894 E0.01904
G1 X40.028 Y39.500 E0.01754
G1 X40.059 Y39.107 E0.01748
G1 X40.151 Y38.724 E0.01748
G1 X40.302 Y38.360 E0.01748
G1 X40.508 Y38.024 E0.01748
G1 X40.764 Y37.724 E0.01748
G1 X41.064 Y37.468 E0.01748
G1 X41.400 Y37.262 E0.01748
G1 X41.764 Y37.112 E0.01748
G1 X42.147 Y37.020 E0.01748
G1 X42.503 Y36.992 E0.01584
G1 X42.931 Y37.019 E0.01904
G1 X43.316 Y37.112 E0.01754
G1 X43.680 Y37.262 E0.01748
G1 X44.016 Y37.468 E0.01748
G1 X44.315 Y37.724 E0.01748
G1 X44.571 Y38.024 E0.01748
G1 X44.777 Y38.360 E0.01748
G1 X44.914 Y38.690 E0.01584
G1 X45.020 Y39.106 E0.01904
G1 X45.044 Y39.408 E0.01346
G1 X45.397 Y39.664 F10800.000
G1 F8640.000
G1 X45.020 Y39.893 E-0.11202
G1 X44.928 Y40.276 E-0.09099
G1 X44.777 Y40.640 E-0.09099
G1 X44.571 Y40.976 E-0.09099
G1 X44.315 Y41.276 E-0.09099
G1 X44.016 Y41.532 E-0.09099
G1 X43.680 Y41.738 E-0.09099
G1 X43.350 Y41.874 E-0.08245
G1 X43.268 Y41.895 E-0.01958
G1 E-0.04000 F2100.00000
G1 Z0.900 F10800.000
G1 X42.500 Y86.635
G1 Z0.300
G1 E0.80000 F2100.00000
G1 F1200.000
G1 X42.984 Y86.666 E0.02152
G1 X43.426 Y86.772 E0.02014
G1 X43.842 Y86.945 E0.01996
G1 X44.225 Y87.180 E0.01996
G1 X44.568 Y87.472 E0.01996
G1 X44.860 Y87.814 E0.01996
G1 X45.095 Y88.198 E0.01996
G1 X45.252 Y88.577 E0.01821
G1 X45.372 Y89.047 E0.02152
G1 X45.408 Y89.500 E0.02014
G1 X45.372 Y89.949 E0.01996
G1 X45.267 Y90.386 E0.01996
G1 X45.095 Y90.802 E0.01996
G1 X44.860 Y91.186 E0.01996
G1 X44.568 Y91.528 E0.01996
G1 X44.225 Y91.820 E0.01996
G1 X43.842 Y92.055 E0.01996
G1 X43.462 Y92.213 E0.01821
G1 X42.992 Y92.332 E0.02152
G1 X42.540 Y92.368 E0.02014
G1 X42.091 Y92.333 E0.01996
G1 X41.653 Y92.228 E0.01996
G1 X41.238 Y92.055 E0.01996
G1 X40.854 Y91.820 E0.01996
G1 X40.512 Y91.528 E0.01996
G1 X40.219 Y91.186 E0.01996
G1 X39.984 Y90.802 E0.01996
G1 X39.827 Y90.423 E0.01821
G1 X39.707 Y89.953 E0.02152
G1 X39.672 Y89.500 E0.02014
G1 X39.707 Y89.051 E0.01996
G1 X39.812 Y88.614 E0.01996
G1 X39.984 Y88.198 E0.01996
G1 X40.219 Y87.814 E0.01996
G1 X40.512 Y87.472 E0.01996
G1 X40.854 Y87.180 E0.01996
G1 X41.238 Y86.945 E0.01996
G1 X41.653 Y86.772 E0.01996
G1 X42.091 Y86.667 E0.01996
G1 X42.441 Y86.640 E0.01555
G1 X42.931 Y87.019 F10800.000
G1 F1200.000
G1 X43.316 Y87.112 E0.01754
G1 X43.680 Y87.262 E0.01748
G1 X44.016 Y87.468 E0.01748
G1 X44.315 Y87.724 E0.01748
G1 X44.571 Y88.024 E0.01748
G1 X44.777 Y88.360 E0.01748
G1 X44.914 Y88.690 E0.01584
G1 X45.020 Y89.106 E0.01904
G1 X45.051 Y89.500 E0.01754
G1 X45.020 Y89.893 E0.01748
G1 X44.928 Y90.276 E0.01748
G1 X44.777 Y90.640 E0.01748
G1 X44.571 Y90.976 E0.01748
G1 X44.315 Y91.276 E0.01748
G1 X44.016 Y91.532 E0.01748
G1 X43.680 Y91.738 E0.01748
G1 X43.350 Y91.874 E0.01584
G1 X42.934 Y91.980 E0.01904
G1 X42.540 Y92.011 E0.01754
G1 X42.147 Y91.980 E0.01748
G1 X41.764 Y91.888 E0.01748
G1 X41.400 Y91.738 E0.01748
G1 X41.064 Y91.532 E0.01748
G1 X40.764 Y91.276 E0.01748
G1 X40.508 Y90.976 E0.01748
G1 X40.302 Y90.640 E0.01748
G1 X40.166 Y90.310 E0.01584
G1 X40.059 Y89.894 E0.01904
G1 X40.028 Y89.500 E0.01754
G1 X40.059 Y89.107 E0.01748
G1 X40.151 Y88.724 E0.01748
G1 X40.302 Y88.360 E0.01748
G1 X40.508 Y88.024 E0.01748
G1 X40.764 Y87.724 E0.01748
G1 X41.064 Y87.468 E0.01748
G1 X41.400 Y87.262 E0.01748
G1 X41.764 Y87.112 E0.01748
G1 X42.147 Y87.020 E0.01748
G1 X42.503 Y86.992 E0.01584
G1 X42.871 Y87.015 E0.01637
G1 X43.180 Y86.712 F10800.000
G1 F8640.000
G1 X43.316 Y87.112 E-0.10501
G1 X43.680 Y87.262 E-0.09099
G1 X44.016 Y87.468 E-0.09099
G1 X44.315 Y87.724 E-0.09099
G1 X44.571 Y88.024 E-0.09099
G1 X44.777 Y88.360 E-0.09099
G1 X44.914 Y88.690 E-0.08245
G1 X45.020 Y89.106 E-0.09910
G1 X45.026 Y89.186 E-0.01849
G1 E-0.04000 F2100.00000
G1 Z0.900 F10800.000
G1 X38.368 Y100.381
G1 Z0.300
G1 E0.80000 F2100.00000
G1 F1200.000
G1 X38.323 Y100.193 E0.00857
G1 X38.305 Y99.970 E0.00991
G1 X38.305 Y29.030 E3.14652
M73 Q0 S152
M73 P0 R150
G1 X38.323 Y28.807 E0.00991
G1 X38.368 Y28.619 E0.00857
G1 X38.442 Y28.441 E0.00858
G1 X38.543 Y28.276 E0.00858
G1 X38.669 Y28.129 E0.00857
G1 X38.816 Y28.003 E0.00857
G1 X38.980 Y27.902 E0.00857
G1 X39.159 Y27.828 E0.00858
G1 X39.347 Y27.783 E0.00857
G1 X39.570 Y27.766 E0.00991
G1 X140.510 Y27.766 E4.47717
G1 X140.730 Y27.783 E0.00980
G1 X140.921 Y27.828 E0.00871
G1 X141.099 Y27.902 E0.00855
G1 X141.264 Y28.003 E0.00857
G1 X141.411 Y28.129 E0.00857
G1 X141.536 Y28.276 E0.00857
G1 X141.637 Y28.441 E0.00858
G1 X141.711 Y28.619 E0.00857
G1 X141.757 Y28.807 E0.00857
G1 X141.774 Y29.030 E0.00991
G1 X141.774 Y99.970 E3.14652
G1 X141.757 Y100.193 E0.00991
G1 X141.711 Y100.381 E0.00857
G1 X141.637 Y100.559 E0.00858
G1 X141.536 Y100.724 E0.00858
G1 X141.411 Y100.871 E0.00857
G1 X141.264 Y100.997 E0.00857
G1 X141.099 Y101.098 E0.00857
G1 X140.920 Y101.172 E0.00858
G1 X140.732 Y101.217 E0.00857
G1 X140.510 Y101.234 E0.00991
G1 X39.570 Y101.234 E4.47717
G1 X39.347 Y101.217 E0.00991
G1 X39.159 Y101.172 E0.00857
G1 X38.980 Y101.098 E0.00858
G1 X38.816 Y100.997 E0.00857
G1 X38.669 Y100.871 E0.00857
G1 X38.543 Y100.724 E0.00857
G1 X38.391 Y100.436 E0.01445
G1 X38.062 Y100.572 F10800.000
G1 F1200.000
G1 X37.971 Y100.249 E0.01492
G1 X37.950 Y99.984 E0.01177
G1 X37.950 Y29.016 E3.14776
G1 X37.971 Y28.751 E0.01177
G1 X38.029 Y28.509 E0.01106
G1 X38.124 Y28.279 E0.01106
G1 X38.254 Y28.066 E0.01106
G1 X38.416 Y27.877 E0.01106
G1 X38.606 Y27.715 E0.01106
G1 X38.818 Y27.584 E0.01106
G1 X39.049 Y27.489 E0.01106
G1 X39.291 Y27.431 E0.01106
G1 X39.556 Y27.410 E0.01177
G1 X140.524 Y27.410 E4.47841
G1 X140.785 Y27.431 E0.01165
G1 X141.031 Y27.489 E0.01119
G1 X141.261 Y27.584 E0.01105
G1 X141.474 Y27.715 E0.01106
G1 X141.663 Y27.877 E0.01106
G1 X141.825 Y28.066 E0.01106
G1 X141.955 Y28.279 E0.01106
G1 X142.051 Y28.509 E0.01106
G1 X142.109 Y28.751 E0.01106
